resources/utilities/icons/setedit.svg

<svg viewBox="0 0 192 192" version="1.1" id="svg196" xml:space="preserve" xmlns="http://www.w3.org/2000/svg"><defs id="defs184"><style id="style182"></style></defs><g id="group" transform="translate(18.567 18.567) scale(.30247)"><path id="path-3" d="m108.617 55.531 39.033 23.464 59.802-24.784 11.014-44.209h75.063l11.014 44.209 59.802 24.784 39.033-23.464 53.089 53.088-23.463 39.033 24.782 59.803 44.209 11.013v75.065l-44.207 11.013-24.784 59.803 23.463 39.033-53.089 53.088-39.033-23.464-59.802 24.784-11.014 44.208h-75.063l-11.014-44.208-59.802-24.784-39.033 23.464-53.089-53.088 23.463-39.033-24.784-59.803L10 293.533v-75.065l44.208-11.013 24.783-59.803-23.463-39.033z" fill="#6200ee" style="fill:#8c72bd"/><path id="path_1" d="M103.998 255.998a152.057 152.057 0 0 1 44.519-107.48 152.057 152.057 0 0 1 107.48-44.519 152.057 152.057 0 0 1 107.48 44.519 152.057 152.057 0 0 1 44.519 107.48 152.057 152.057 0 0 1-44.519 107.48 152.057 152.057 0 0 1-107.48 44.519 152.057 152.057 0 0 1-107.48-44.519 152.057 152.057 0 0 1-44.519-107.48" fill="#f7c331" style="fill:#f9de81"/><path id="path_2" d="m209.126 240.459-34.209 96.626 96.626-34.209L495.37 79.05c8.839-8.839 8.839-23.17 0-32.009l-30.409-30.409c-8.839-8.839-23.17-8.839-32.009 0z" fill="#ff8017" style="fill:#f8c18c"/><path id="path_3" d="m209.126 240.459-34.209 96.626 96.626-34.208z" fill="#82716e" style="fill:#8e6f60"/><path id="path_4" d="m174.917 337.085 56.303-19.933-36.37-36.37z" fill="#212121" style="fill:#83868c"/><path id="path_5" d="m463.433 110.987 31.938-31.938c8.839-8.839 8.839-23.17 0-32.01L464.962 16.63c-8.839-8.839-23.17-8.839-32.009 0l-31.938 31.938z" fill="#ff414e" style="fill:#ff837d"/><path id="path_6" d="m504.412 208.765-39.317-9.796-22.122-53.38 59.468-59.468C508.605 79.957 512 71.762 512 63.045c0-8.718-3.395-16.913-9.559-23.076L472.032 9.56c-12.726-12.724-33.428-12.722-46.151 0l-59.466 59.466-53.386-22.125-9.796-39.316A9.998 9.998 0 0 0 293.53.002h-75.063a9.998 9.998 0 0 0-9.703 7.583l-9.796 39.316-50.49 20.924-34.71-20.865a10 10 0 0 0-12.224 1.499l-53.089 53.089a10 10 0 0 0-1.499 12.224l20.865 34.71L46.9 198.97l-39.317 9.796A9.996 9.996 0 0 0 0 218.468v75.063a9.998 9.998 0 0 0 7.583 9.703l39.316 9.796 20.924 50.487-20.865 34.71a10 10 0 0 0 1.499 12.224l53.089 53.089a10.004 10.004 0 0 0 12.224 1.499l34.71-20.865 50.488 20.923 9.796 39.317a9.998 9.998 0 0 0 9.703 7.583h75.063a9.998 9.998 0 0 0 9.703-7.583l9.796-39.317 50.488-20.923 34.71 20.865a10.003 10.003 0 0 0 12.224-1.499l53.089-53.089a10 10 0 0 0 1.499-12.224l-20.865-34.71 20.924-50.487 39.316-9.796a9.998 9.998 0 0 0 7.583-9.703v-75.063a10.002 10.002 0 0 0-7.585-9.703zm-121.43-31.469-.066.066-111.373 111.373-16.977-16.977 80.594-80.593c3.905-3.905 3.905-10.237 0-14.143-3.904-3.903-10.234-3.904-14.143 0l-80.594 80.593-17.157-17.157 111.377-111.377.058-.058 65.349-65.349 17.157 17.157-42.458 42.458c-3.905 3.905-3.905 10.237 0 14.143a9.972 9.972 0 0 0 7.071 2.929 9.972 9.972 0 0 0 7.071-2.929l42.458-42.458 16.976 16.976zm-184.149 122.2 13.674 13.674-21.168 7.494zm34.564 6.279-27.169-27.168 7.034-19.868 20.072 20.072c.007.006.012.014.018.02l.02.018 19.892 19.892zM440.024 23.703c4.926-4.926 12.941-4.926 17.867 0L488.3 54.112a12.554 12.554 0 0 1 3.7 8.934c0 3.374-1.314 6.547-3.701 8.934l-25.83 25.83-48.276-48.276zm51.971 262.015-36.625 9.125a10 10 0 0 0-6.821 5.875l-24.784 59.803a9.997 9.997 0 0 0 .668 8.98l19.438 32.335-42.038 42.038-32.335-19.438a10 10 0 0 0-8.98-.668l-59.803 24.783a10 10 0 0 0-5.875 6.821l-9.125 36.626H226.28l-9.125-36.626a10 10 0 0 0-5.875-6.821l-59.803-24.783a9.993 9.993 0 0 0-8.98.668l-32.335 19.438-42.038-42.038 19.438-32.335a9.997 9.997 0 0 0 .668-8.98l-24.786-59.803a10 10 0 0 0-6.821-5.875L20 285.718v-59.435l36.626-9.125a10 10 0 0 0 6.821-5.875L88.23 151.48a9.997 9.997 0 0 0-.668-8.98l-19.438-32.335 42.038-42.038 32.335 19.438a9.997 9.997 0 0 0 8.98.668l59.803-24.784a10 10 0 0 0 5.875-6.821l9.125-36.625h59.435l9.125 36.625a10 10 0 0 0 5.875 6.821l50.395 20.885-25.42 25.42a162.47 162.47 0 0 0-69.691-15.752c-29.229 0-57.88 7.872-82.856 22.766-4.744 2.828-6.297 8.967-3.468 13.71a9.994 9.994 0 0 0 13.71 3.468c21.881-13.047 46.991-19.943 72.614-19.943 18.744 0 37.36 3.741 54.558 10.885l-108.502 108.5a9.99 9.99 0 0 0-2.355 3.734l-34.209 96.626a10 10 0 0 0 12.763 12.764l96.626-34.209a9.995 9.995 0 0 0 3.734-2.355l108.5-108.5a142.538 142.538 0 0 1 10.882 54.551c0 78.298-63.7 141.999-141.999 141.999-78.299 0-141.998-63.7-141.998-141.998 0-25.317 6.742-50.165 19.496-71.857 2.8-4.761 1.209-10.89-3.552-13.688-4.762-2.802-10.89-1.209-13.688 3.552-14.56 24.762-22.256 53.115-22.256 81.993 0 89.326 72.672 161.998 161.998 161.998S417.996 345.326 417.996 256a162.46 162.46 0 0 0-15.749-69.685l25.42-25.42 20.881 50.387a10 10 0 0 0 6.821 5.875l36.627 9.126v59.435z" fill="#000" style="fill:#56595b"/><path id="path_7" d="M148.269 158.772a9.97 9.97 0 0 0 7.071-2.929l.291-.293c3.882-3.928 3.846-10.259-.083-14.142-3.929-3.883-10.26-3.848-14.142.083l-.209.209c-3.905 3.905-3.905 10.237 0 14.143a9.973 9.973 0 0 0 7.072 2.929z" fill="#000" style="fill:#56595b"/><path id="path_8" d="m348.181 149.86-.108.108c-3.905 3.905-3.905 10.237 0 14.143a9.972 9.972 0 0 0 7.071 2.929 9.972 9.972 0 0 0 7.071-2.929l.108-.108c3.905-3.905 3.905-10.237 0-14.143-3.906-3.904-10.236-3.904-14.142 0z" fill="#000" style="fill:#56595b"/><path id="path_9" d="M255.997 376.999c66.719 0 120.999-54.279 120.999-120.999 0-5.522-4.478-10-10-10s-10 4.478-10 10c0 55.69-45.309 100.999-100.999 100.999-5.522 0-10 4.478-10 10 .001 5.522 4.479 10 10 10z" fill="#000" style="fill:#56595b"/></g></svg>

<?xml version="1.0" encoding="UTF-8" standalone="no"?>
<svg
   viewBox="0 0 192 192"
   version="1.1"
   id="svg196"
   sodipodi:docname="setedit.svg"
   inkscape:version="1.2.2 (b0a8486541, 2022-12-01)"
   xml:space="preserve"
   inkscape:export-filename="setedit.png"
   inkscape:export-xdpi="96"
   inkscape:export-ydpi="96"
   xmlns:inkscape="http://www.inkscape.org/namespaces/inkscape"
   xmlns:sodipodi="http://sodipodi.sourceforge.net/DTD/sodipodi-0.dtd"
   xmlns="http://www.w3.org/2000/svg"
   xmlns:svg="http://www.w3.org/2000/svg"><sodipodi:namedview
     id="namedview198"
     pagecolor="#ffffff"
     bordercolor="#111111"
     borderopacity="1"
     inkscape:showpageshadow="0"
     inkscape:pageopacity="0"
     inkscape:pagecheckerboard="1"
     inkscape:deskcolor="#d1d1d1"
     showgrid="false"
     inkscape:zoom="2.9462783"
     inkscape:cx="58.718146"
     inkscape:cy="95.03515"
     inkscape:window-width="1920"
     inkscape:window-height="1011"
     inkscape:window-x="0"
     inkscape:window-y="0"
     inkscape:window-maximized="1"
     inkscape:current-layer="group" /><defs
     id="defs184"><style
       id="style182">.a{fill:none;stroke:#b1b5bd;stroke-linecap:round;stroke-linejoin:round;isolation:isolate;opacity:0.63;}</style></defs><g
     id="group"
     transform="matrix(0.30247225,0,0,0.30247225,18.567104,18.567255)"
     style="stroke:none"><path
       id="path-3"
       d="m 108.617,55.531 39.033,23.464 59.802,-24.784 11.014,-44.209 h 75.063 l 11.014,44.209 59.802,24.784 39.033,-23.464 53.089,53.088 -23.463,39.033 24.782,59.803 44.209,11.013 v 75.065 l -44.207,11.013 -24.784,59.803 23.463,39.033 -53.089,53.088 -39.033,-23.464 -59.802,24.784 -11.014,44.208 H 218.466 L 207.452,457.79 147.65,433.006 108.617,456.47 55.528,403.382 78.991,364.349 54.207,304.546 10,293.533 V 218.468 L 54.208,207.455 78.991,147.652 55.528,108.619 Z"
       fill="#6200ee"
       style="fill:#8c72bd;stroke:none" /><path
       id="path_1"
       d="m 255.997,255.998 m -151.999,0 c 0,-40.297 16.025,-78.985 44.519,-107.48 28.495,-28.494 67.183,-44.519 107.48,-44.519 40.297,0 78.985,16.025 107.48,44.519 28.494,28.495 44.519,67.183 44.519,107.48 0,40.297 -16.025,78.985 -44.519,107.48 -28.495,28.494 -67.183,44.519 -107.48,44.519 -40.297,0 -78.985,-16.025 -107.48,-44.519 -28.494,-28.495 -44.519,-67.183 -44.519,-107.48"
       fill="#f7c331"
       style="fill:#f9de81;stroke:none" /><path
       id="path_2"
       d="M 209.126,240.459 174.917,337.085 271.543,302.876 495.37,79.05 c 8.839,-8.839 8.839,-23.17 0,-32.009 L 464.961,16.632 c -8.839,-8.839 -23.17,-8.839 -32.009,0 z"
       fill="#ff8017"
       style="fill:#f8c18c;stroke:none" /><path
       id="path_3"
       d="m 209.126,240.459 -34.209,96.626 96.626,-34.208 z"
       fill="#82716e"
       style="fill:#d3b69a;stroke:none" /><path
       id="path_4"
       d="m 174.917,337.085 56.303,-19.933 -36.37,-36.37 z"
       fill="#212121"
       style="fill:#56595b;stroke:none" /><path
       id="path_5"
       d="m 463.433,110.987 31.938,-31.938 c 8.839,-8.839 8.839,-23.17 0,-32.01 L 464.962,16.63 c -8.839,-8.839 -23.17,-8.839 -32.009,0 l -31.938,31.938 z"
       fill="#ff414e"
       style="fill:#ff837d;stroke:none" /></g></svg>
